img/lyft.svg

<svg xmlns="http://www.w3.org/2000/svg" version="1.1" width="72px" height="50px" viewBox="0 0 72 50">
    <g fill="#FF00BF" stroke="none">
        <path d="M0.0228930535,0.888355356 L10.9345304,0.888355356 L10.9345304,29.6040347 C10.9345304,34.1479858 13.0546964,36.8554476 14.7310066,38.0153356 C12.9561216,39.5623811 7.53289193,40.916112 3.49024801,37.6287062 C1.10667714,35.6908059 0.0228930535,32.5042829 0.0228930535,29.5073774 L0.0228930535,0.888355356 Z"></path>
        <path d="M68.2177982,24.741537 L68.2177982,21.7240323 L71.5456402,21.7240323 L71.5456402,11.1371491 L67.8913702,11.1371491 C66.4881607,4.78100504 60.7169566,0.0183865248 53.8151049,0.0183865248 C45.8644821,0.0183865248 39.4194142,6.33808604 39.4194142,14.1340547 L39.4194142,38.8577333 C41.6844799,39.169889 44.3831669,38.8186478 46.6789361,36.9520521 C49.062507,35.0141517 50.1462911,31.8276288 50.1462911,28.830195 L50.1462911,27.919609 L55.5959152,27.919609 L55.5959152,17.3327258 L50.1462911,17.3327258 L50.1462911,14.1340547 L50.1592189,14.1340547 C50.1592189,12.154428 51.7962069,10.5492824 53.8151049,10.5492824 C55.8345416,10.5492824 57.4774548,12.154428 57.4774548,14.1340547 L57.4774548,24.741537 C57.4774548,32.5375056 63.9295253,38.8577333 71.8801481,38.8577333 L71.8801481,28.3263093 C69.8612501,28.3263093 68.2177982,26.7211637 68.2177982,24.741537"></path>
        <path d="M26.8905039,11.1369378 L26.8905039,26.6744724 C26.8905039,27.5565366 26.143921,28.271167 25.2233509,28.271167 C24.3022422,28.271167 23.5556593,27.5565366 23.5556593,26.6744724 L23.5556593,11.1369378 L12.7587566,11.1369378 L12.7587566,29.410456 C12.7587566,32.6978617 13.895868,36.8551835 19.0696981,38.2089143 C24.2489148,39.5637016 27.2535608,36.7585261 27.2535608,36.7585261 C26.9799214,38.6066355 25.2050365,39.9603664 22.3452901,40.2503384 C20.1814925,40.469534 17.4149344,39.7670517 16.0348872,39.1865795 L16.0348872,48.8681585 C19.5517989,49.8849091 23.2712468,50.2134384 26.9115116,49.5209916 C33.5176389,48.2639181 37.6874066,42.8495228 37.6874066,35.6467027 L37.6874066,11.1369378 L26.8905039,11.1369378 Z"></path>
    </g>
</svg>

<svg xmlns="http://www.w3.org/2000/svg" width="72" height="50" viewBox="0 0 72 50"><g fill="#FF00BF"><path d="M.023.888h10.912v28.716c0 4.544 2.12 7.251 3.796 8.411-1.775 1.547-7.198 2.901-11.24-.386C1.106 35.69.022 32.504.022 29.507V.888zm68.195 23.854v-3.018h3.328V11.137H67.89C66.488 4.781 60.717.018 53.815.018c-7.95 0-14.396 6.32-14.396 14.116v24.724c2.265.312 4.964-.04 7.26-1.906 2.384-1.938 3.467-5.124 3.467-8.122v-.91h5.45V17.333h-5.45v-3.199h.013c0-1.98 1.637-3.585 3.656-3.585 2.02 0 3.662 1.605 3.662 3.585v10.608c0 7.796 6.453 14.116 14.403 14.116V28.326c-2.019 0-3.662-1.605-3.662-3.584"/><path d="M26.89 11.137v15.537c0 .883-.746 1.597-1.667 1.597-.92 0-1.667-.714-1.667-1.597V11.137H12.759V29.41c0 3.288 1.137 7.445 6.31 8.799 5.18 1.355 8.185-1.45 8.185-1.45-.274 1.848-2.049 3.201-4.909 3.491-2.164.22-4.93-.483-6.31-1.063v9.681c3.517 1.017 7.236 1.345 10.877.653 6.606-1.257 10.775-6.671 10.775-13.874v-24.51H26.891z"/></g></svg>
